Sources/MushafImad/Media.xcassets/pagenumb.imageset/pagenumb.svg

<svg width="42" height="30" viewBox="0 0 42 30" fill="none" xmlns="http://www.w3.org/2000/svg">
<g clip-path="url(#clip0_1153_43396)">
<path d="M6.79009 7.91299C5.22928 8.02717 5.47408 5.79051 6.24344 4.94077C6.05202 4.74799 5.29002 5.60148 5.14278 5.76993C4.06236 7.00898 3.17152 9.50018 4.69183 10.6962C5.07836 10.8534 4.86853 10.0729 5.33788 9.67611C6.3189 8.84696 7.27416 10.8609 6.12748 11.7874C4.29979 13.2641 2.51996 10.8721 2.58622 8.94055C2.73163 4.66189 7.53736 1.45759 11.3621 1.03833L9.18835 2.63487C7.8705 4.08167 6.97783 5.93276 6.79193 7.91299H6.79009Z" fill="#A9C9BF"/>
<path d="M4.84433 21.4114C3.34427 19.8879 2.09268 17.26 2.80682 15.1057C3.65164 12.5621 7.52605 12.9159 6.38121 15.8563C5.38914 16.4627 4.91796 15.8338 4.96029 14.7875C2.64669 15.9405 4.47806 19.8635 6.23949 20.7339C6.25973 20.2884 5.83272 20.1143 5.73149 19.6745C5.5235 18.763 5.60449 17.9451 6.51557 17.5801C6.68859 17.5894 7.31806 19.8991 7.48739 20.3034C8.31749 22.2855 9.63534 23.6256 11.544 24.5446C9.28195 24.3181 6.46035 23.0585 4.84065 21.4133L4.84433 21.4114Z" fill="#A9C9BF"/>
<path d="M29.714 24.4496C30.2147 23.9031 30.984 23.568 31.5233 23.0383C32.924 21.6589 33.7799 19.5046 34.1038 17.5768C35.5026 18.0447 35.1492 19.4616 34.6504 20.5471C34.8713 20.7324 35.8542 19.6469 36.0106 19.4223C36.8886 18.1514 37.4426 15.8492 36.0217 14.7917C35.6075 15.0538 36.0217 15.5367 35.7051 15.8567C35.1014 16.4688 34.1093 15.7893 34.1572 14.9078C34.2787 12.6824 37.7463 12.9856 38.107 15.6396C38.7476 20.3506 33.8332 23.9143 29.714 24.4477V24.4496Z" fill="#A9C9BF"/>
<path d="M35.7477 10.698C36.3754 10.7954 36.7398 10.2395 36.8337 9.66676C37.1282 7.8662 36.2926 5.75682 34.6526 4.9389C35.0815 6.04132 35.6152 7.45443 34.1041 7.91112C33.8115 6.29587 33.1581 4.74238 32.2433 3.39103L29.5321 1.03833C33.6513 1.47256 39.4381 5.66137 37.9528 10.4304C36.9736 13.5748 32.455 11.8809 34.9526 9.42905C35.6171 9.50579 36.079 10.0804 35.7496 10.6962L35.7477 10.698Z" fill="#A9C9BF"/>
<path d="M39.2226 13.6742C39.6993 14.5969 39.9349 15.7892 38.6741 16.0886C38.6373 14.6886 37.9121 12.8731 36.2979 12.9292C36.4194 12.583 36.9642 12.6185 37.3047 12.3752C38.1643 11.7576 38.733 10.4642 38.676 9.40112C39.8981 9.84284 39.8061 11.1249 39.0404 12.0009C39.276 12.1918 40.0877 11.1961 40.9638 12.0009C42.2393 13.1726 40.4981 14.376 39.2245 13.6779L39.2226 13.6742Z" fill="#A9C9BF"/>
<path d="M2.03566 16.8314C1.6565 16.5431 1.32704 15.8413 1.16691 15.3939C0.377302 13.1853 0.456447 10.6436 2.03566 8.84119C1.90498 10.7952 2.70562 12.2851 4.59957 12.8372C2.74612 13.0824 1.89393 15.0963 2.03566 16.8314Z" fill="#A9C9BF"/>
<path d="M36.2941 16.0886C33.2535 18.3365 32.3203 13.2212 35.5671 12.8375C32.3332 12.334 33.1578 7.30294 36.2941 9.39922C36.3733 8.51205 36.2868 7.78958 35.9278 6.98476L34.818 8.36044L33.5535 8.65616C33.1302 4.22778 30.2902 0.997268 26.0403 0.830688H14.7171C14.4925 0.838175 14.2662 0.851277 14.0361 0.875609C9.86167 1.30984 7.86649 4.7219 7.16523 8.5813C6.14924 8.6075 5.1314 8.13397 5.14429 6.98663C4.96943 6.79759 4.17246 8.61686 4.50377 9.21954C4.69519 9.5658 5.1903 8.87328 5.61547 8.84708C6.50815 8.79093 7.36218 9.6781 7.35665 10.6121C7.34929 11.8586 6.4695 12.3434 5.5124 12.8431C8.56591 13.6554 7.50758 17.8255 4.41542 16.2814L4.96575 18.694C5.27313 18.6678 5.11852 18.198 5.3173 17.848C5.58786 17.3744 6.66828 16.7306 7.17076 17.103C7.74501 22.0312 11.1906 24.5598 14.7171 24.7114H26.0201C26.0201 24.7114 26.0329 24.7114 26.0403 24.7114C29.6 24.5692 33.0676 22.0087 33.5701 17.0431C34.9744 16.7418 35.199 17.6552 35.9278 18.5105C36.2794 17.702 36.3769 16.987 36.2941 16.0961V16.0886Z" fill="#D8E5C7"/>
<path d="M40.1336 11.0706C40.4539 10.5409 40.0987 9.59759 39.6827 9.20828C39.4305 8.97245 38.9097 8.89196 38.7643 8.65426C38.5894 8.36977 38.5692 7.46575 38.3925 6.98847C36.6807 2.3673 31.3707 0.0857309 26.0201 -0.000366211H14.7172C10.1839 0.0726291 5.72416 1.71783 3.50075 4.8454C2.86576 5.73819 2.69827 6.60291 2.22708 7.45452C1.37305 8.99865 0.303682 9.71925 0.0275962 11.8137C-0.0552295 12.4425 0.0864945 13.208 0.0275962 13.8575C0.404913 14.7166 0.574246 15.63 1.02703 16.4648C1.63442 17.5878 2.34856 18.7407 2.98723 19.86C5.20328 23.7362 8.94332 24.7095 13.0073 25.563H14.7172V25.533H26.0201V25.563H27.7024C32.2192 25.1269 37.3857 22.5795 38.6299 17.8049C38.7054 17.5129 38.6004 17.0263 38.7017 16.8578C38.8066 16.6856 39.9201 16.5041 40.2422 15.338C40.3195 15.0591 40.1557 14.6698 40.2146 14.5875C40.3287 14.4284 41.1018 14.3367 41.4589 14.0447C42.6773 13.049 41.6668 10.861 40.1355 11.0669L40.1336 11.0706ZM37.9507 10.4324C36.9715 13.5768 32.4529 11.8829 34.9506 9.43101C35.615 9.50775 36.077 10.0824 35.7476 10.6981C36.3752 10.7955 36.7396 10.2396 36.8335 9.66684C37.128 7.86629 36.2924 5.75691 34.6524 4.93899C35.0813 6.0414 35.615 7.45452 34.1039 7.91121C33.8113 6.29595 33.1579 4.74246 32.2431 3.39111L29.532 1.03841C33.6511 1.47264 39.4379 5.66145 37.9526 10.4305L37.9507 10.4324ZM2.58415 8.94063C2.7314 4.66198 7.53713 1.45767 11.3618 1.03841L9.18812 2.63495C7.87027 4.08176 6.97759 5.93285 6.7917 7.91308C5.23089 8.02725 5.47569 5.7906 6.24505 4.94086C6.05363 4.74808 5.29163 5.60156 5.14438 5.77001C4.06397 7.00906 3.17313 9.50026 4.69344 10.6963C5.07996 10.8535 4.87014 10.073 5.33949 9.6762C6.32051 8.84704 7.27577 10.861 6.12909 11.7874C4.3014 13.2642 2.52157 10.8722 2.58783 8.94063H2.58415ZM1.16691 15.3942C0.377305 13.1856 0.456449 10.6439 2.03566 8.84143C1.90498 10.7955 2.70563 12.2853 4.59958 12.8375C2.74612 13.0826 1.89394 15.0966 2.03566 16.8316C1.6565 16.5434 1.32704 15.8415 1.16691 15.3942ZM4.84437 21.4116C3.34431 19.8881 2.09272 17.2602 2.80686 15.1059C3.65168 12.5623 7.52608 12.9161 6.38125 15.8565C5.38918 16.4629 4.91799 15.834 4.96033 14.7877C2.64673 15.9407 4.4781 19.8637 6.23952 20.7341C6.25977 20.2886 5.83276 20.1145 5.73153 19.6747C5.52354 18.7632 5.60453 17.9453 6.51561 17.5803C6.68862 17.5896 7.3181 19.8993 7.48743 20.3036C8.31753 22.2857 9.63538 23.6258 11.5441 24.5448C9.28199 24.3183 6.46039 23.0587 4.84069 21.4135L4.84437 21.4116ZM26.0201 24.7076H14.7172C11.1907 24.5541 7.74511 22.0255 7.17085 17.0974C6.67022 16.7268 5.58796 17.3707 5.3174 17.8423C5.11678 18.1923 5.27322 18.6621 4.96585 18.6883L4.41552 16.2757C7.50768 17.8199 8.56601 13.6498 5.5125 12.8375C6.4696 12.3377 7.35123 11.8548 7.35675 10.6064C7.36227 9.67432 6.50825 8.78715 5.61557 8.84143C5.1904 8.86763 4.69528 9.56015 4.50387 9.21389C4.17072 8.61308 4.96769 6.79194 5.14438 6.98098C5.12966 8.12832 6.14934 8.60186 7.16533 8.57565C7.86843 4.71626 9.86177 1.30606 14.0362 0.869963C14.2663 0.845631 14.4926 0.832529 14.7172 0.825043H26.0201C30.2811 0.984135 33.1303 4.21652 33.5536 8.65239L34.8181 8.35667L35.9279 6.98098C36.2868 7.7858 36.3734 8.50827 36.2942 9.39545C33.1579 7.29917 32.3315 12.3302 35.5672 12.8337C32.3223 13.2174 33.2554 18.3327 36.2942 16.0848C36.377 16.9757 36.2795 17.6907 35.9279 18.4993C35.1991 17.6439 34.9745 16.7305 33.5702 17.0319C33.0658 22.0068 29.5872 24.5691 26.0201 24.702V24.7076ZM29.7142 24.4493C30.2148 23.9028 30.9842 23.5678 31.5235 23.0381C32.9241 21.6587 33.78 19.5044 34.1039 17.5765C35.5028 18.0445 35.1494 19.4613 34.6506 20.5469C34.8714 20.7322 35.8543 19.6466 36.0108 19.422C36.8887 18.1511 37.4427 15.849 36.0218 14.7915C35.6077 15.0535 36.0218 15.5364 35.7052 15.8565C35.1015 16.4685 34.1095 15.7891 34.1573 14.9075C34.2788 12.6821 37.7464 12.9853 38.1072 15.6394C38.7477 20.3504 33.8334 23.914 29.7142 24.4475V24.4493ZM39.2226 13.6741C39.6993 14.5968 39.9349 15.7891 38.6741 16.0886C38.6373 14.6885 37.9121 12.873 36.2979 12.9292C36.4194 12.5829 36.9642 12.6185 37.3047 12.3752C38.1642 11.7575 38.733 10.4642 38.6759 9.40106C39.8981 9.84278 39.806 11.1249 39.0403 12.0008C39.2759 12.1917 40.0876 11.196 40.9637 12.0008C42.2393 13.1725 40.4981 14.376 39.2244 13.6778L39.2226 13.6741Z" fill="#015C42"/>
</g>
<defs>
<clipPath id="clip0_1153_43396">
<rect width="42" height="25.5652" fill="white"/>
</clipPath>
</defs>
</svg>

<?xml version="1.0" encoding="UTF-8" standalone="no"?><!DOCTYPE svg PUBLIC "-//W3C//DTD SVG 1.1//EN" "http://www.w3.org/Graphics/SVG/1.1/DTD/svg11.dtd"><svg width="100%" height="100%" viewBox="0 0 42 30" version="1.1" xmlns="http://www.w3.org/2000/svg" xmlns:xlink="http://www.w3.org/1999/xlink" xml:space="preserve" xmlns:serif="http://www.serif.com/" style="fill-rule:evenodd;clip-rule:evenodd;stroke-linejoin:round;stroke-miterlimit:2;"><g><clipPath id="_clip1"><rect x="0" y="0" width="42" height="25.565"/></clipPath><g clip-path="url(#_clip1)"><path d="M6.79,7.913c-1.561,0.114 -1.316,-2.122 -0.547,-2.972c-0.191,-0.193 -0.953,0.661 -1.101,0.829c-1.08,1.239 -1.971,3.73 -0.451,4.926c0.387,0.157 0.177,-0.623 0.646,-1.02c0.981,-0.829 1.936,1.185 0.79,2.111c-1.828,1.477 -3.608,-0.915 -3.541,-2.847c0.145,-4.279 4.951,-7.483 8.776,-7.902l-2.174,1.597c-1.318,1.447 -2.211,3.298 -2.396,5.278l-0.002,0Z" style="fill:#aa5e1b;fill-rule:nonzero;"/><path d="M4.844,21.411c-1.5,-1.524 -2.752,-4.151 -2.038,-6.306c0.845,-2.544 4.719,-2.19 3.574,0.751c-0.992,0.606 -1.463,-0.022 -1.421,-1.069c-2.314,1.153 -0.482,5.076 1.279,5.946c0.02,-0.445 -0.407,-0.62 -0.508,-1.059c-0.208,-0.911 -0.127,-1.729 0.784,-2.094c0.173,0.009 0.802,2.319 0.972,2.723c0.83,1.982 2.148,3.322 4.057,4.241c-2.262,-0.226 -5.084,-1.486 -6.703,-3.131l0.004,-0.002Z" style="fill:#aa5e1b;fill-rule:nonzero;"/><path d="M29.714,24.45c0.501,-0.547 1.27,-0.882 1.809,-1.411c1.401,-1.379 2.257,-3.534 2.581,-5.462c1.399,0.468 1.045,1.885 0.547,2.97c0.221,0.185 1.204,-0.9 1.36,-1.125c0.878,-1.271 1.432,-3.573 0.011,-4.631c-0.414,0.262 0,0.745 -0.317,1.065c-0.604,0.612 -1.596,-0.067 -1.548,-0.949c0.121,-2.225 3.589,-1.922 3.95,0.732c0.641,4.711 -4.274,8.275 -8.393,8.808l0,0.002Z" style="fill:#aa5e1b;fill-rule:nonzero;"/><path d="M35.748,10.698c0.628,0.097 0.992,-0.459 1.086,-1.031c0.294,-1.801 -0.541,-3.91 -2.181,-4.728c0.429,1.102 0.963,2.516 -0.548,2.972c-0.293,-1.615 -0.946,-3.169 -1.861,-4.52l-2.711,-2.353c4.119,0.434 9.906,4.623 8.421,9.392c-0.979,3.144 -5.498,1.45 -3,-1.001c0.665,0.077 1.126,0.651 0.797,1.267l-0.002,0.002Z" style="fill:#aa5e1b;fill-rule:nonzero;"/><path d="M39.223,13.674c0.477,0.923 0.712,2.115 -0.548,2.414c-0.037,-1.4 -0.762,-3.215 -2.376,-3.159c0.122,-0.346 0.666,-0.311 1.007,-0.554c0.86,-0.618 1.428,-1.911 1.371,-2.974c1.222,0.442 1.13,1.724 0.364,2.6c0.236,0.191 1.047,-0.805 1.923,0c1.276,1.172 -0.466,2.375 -1.739,1.677l-0.002,-0.004Z" style="fill:#aa5e1b;fill-rule:nonzero;"/><path d="M2.036,16.831c-0.379,-0.288 -0.709,-0.99 -0.869,-1.437c-0.79,-2.209 -0.71,-4.75 0.869,-6.553c-0.131,1.954 0.67,3.444 2.564,3.996c-1.853,0.245 -2.706,2.259 -2.564,3.994Z" style="fill:#aa5e1b;fill-rule:nonzero;"/><path d="M36.294,16.089c-3.041,2.248 -3.974,-2.867 -0.727,-3.251c-3.234,-0.504 -2.409,-5.535 0.727,-3.438c0.079,-0.887 -0.007,-1.61 -0.366,-2.414l-1.11,1.376l-1.264,0.296c-0.423,-4.428 -3.263,-7.659 -7.513,-7.825l-11.323,-0c-0.225,0.007 -0.451,0.021 -0.681,0.045c-4.174,0.434 -6.17,3.846 -6.871,7.706c-1.016,0.026 -2.034,-0.447 -2.021,-1.595c-0.175,-0.189 -0.972,1.63 -0.641,2.233c0.191,0.346 0.687,-0.346 1.112,-0.372c0.893,-0.056 1.747,0.831 1.741,1.765c-0.007,1.246 -0.887,1.731 -1.844,2.231c3.054,0.812 1.995,4.982 -1.097,3.438l0.55,2.413c0.307,-0.026 0.153,-0.496 0.352,-0.846c0.271,-0.474 1.351,-1.117 1.853,-0.745c0.574,4.928 4.02,7.457 7.546,7.608l11.323,0c3.56,-0.142 7.027,-2.703 7.53,-7.668c1.404,-0.301 1.629,0.612 2.358,1.467c0.352,-0.808 0.449,-1.524 0.366,-2.414l0,-0.008Z" style="fill:#fff;fill-rule:nonzero;"/><path d="M40.134,11.071c0.32,-0.53 -0.035,-1.473 -0.451,-1.862c-0.252,-0.236 -0.773,-0.316 -0.918,-0.554c-0.175,-0.284 -0.195,-1.189 -0.372,-1.666c-1.712,-4.621 -7.022,-6.903 -12.372,-6.989l-11.303,0c-4.533,0.073 -8.993,1.718 -11.216,4.846c-0.635,0.893 -0.802,1.758 -1.274,2.609c-0.854,1.544 -1.923,2.265 -2.199,4.359c-0.083,0.629 0.059,1.394 -0,2.044c0.377,0.859 0.547,1.773 0.999,2.607c0.607,1.123 1.322,2.276 1.96,3.395c2.216,3.876 5.956,4.849 10.02,5.703l1.71,0l0,-0.03l11.303,0l0,0.03l1.682,0c4.517,-0.436 9.683,-2.983 10.927,-7.758c0.075,-0.292 -0.029,-0.779 0.072,-0.947c0.105,-0.172 1.218,-0.354 1.54,-1.52c0.077,-0.279 -0.086,-0.668 -0.028,-0.75c0.114,-0.159 0.887,-0.251 1.244,-0.543c1.218,-0.996 0.208,-3.184 -1.323,-2.978l-0.002,0.004Zm-2.183,-0.638c-0.979,3.144 -5.498,1.45 -3,-1.001c0.664,0.077 1.126,0.651 0.797,1.267c0.628,0.097 0.992,-0.459 1.086,-1.031c0.294,-1.801 -0.541,-3.91 -2.181,-4.728c0.429,1.102 0.963,2.516 -0.548,2.972c-0.293,-1.615 -0.946,-3.169 -1.861,-4.52l-2.711,-2.353c4.119,0.434 9.906,4.623 8.421,9.392l-0.002,0.002Zm-35.367,-1.492c0.147,-4.279 4.953,-7.483 8.778,-7.902l-2.174,1.597c-1.318,1.447 -2.211,3.298 -2.396,5.278c-1.561,0.114 -1.316,-2.122 -0.547,-2.972c-0.191,-0.193 -0.953,0.661 -1.101,0.829c-1.08,1.239 -1.971,3.73 -0.451,4.926c0.387,0.157 0.177,-0.623 0.646,-1.02c0.981,-0.829 1.936,1.185 0.79,2.111c-1.828,1.477 -3.608,-0.915 -3.541,-2.847l-0.004,0Zm-1.417,6.454c-0.79,-2.209 -0.71,-4.75 0.869,-6.553c-0.131,1.954 0.67,3.444 2.564,3.996c-1.853,0.245 -2.706,2.259 -2.564,3.994c-0.379,-0.288 -0.709,-0.99 -0.869,-1.437Zm3.677,6.017c-1.5,-1.523 -2.752,-4.151 -2.038,-6.306c0.845,-2.544 4.719,-2.19 3.574,0.751c-0.992,0.606 -1.463,-0.023 -1.421,-1.069c-2.314,1.153 -0.482,5.076 1.279,5.946c0.02,-0.446 -0.407,-0.62 -0.508,-1.059c-0.208,-0.912 -0.127,-1.729 0.784,-2.094c0.173,0.009 0.802,2.319 0.972,2.723c0.83,1.982 2.148,3.322 4.057,4.241c-2.262,-0.226 -5.084,-1.486 -6.703,-3.131l0.004,-0.002Zm21.176,3.296l-11.303,0c-3.527,-0.154 -6.972,-2.682 -7.546,-7.61c-0.501,-0.371 -1.583,0.273 -1.853,0.745c-0.201,0.35 -0.044,0.82 -0.352,0.846l-0.55,-2.413c3.092,1.544 4.15,-2.626 1.097,-3.438c0.957,-0.5 1.839,-0.983 1.844,-2.231c0.006,-0.932 -0.848,-1.819 -1.741,-1.765c-0.425,0.026 -0.92,0.719 -1.112,0.372c-0.333,-0.601 0.464,-2.422 0.641,-2.233c-0.015,1.147 1.005,1.621 2.021,1.595c0.703,-3.859 2.696,-7.27 6.871,-7.706c0.23,-0.024 0.456,-0.037 0.681,-0.045l11.303,0c4.261,0.159 7.11,3.391 7.534,7.827l1.264,-0.296l1.11,-1.376c0.359,0.805 0.445,1.527 0.366,2.414c-3.136,-2.096 -3.963,2.935 -0.727,3.438c-3.245,0.384 -2.312,5.499 0.727,3.251c0.083,0.891 -0.015,1.606 -0.366,2.415c-0.729,-0.855 -0.953,-1.769 -2.358,-1.467c-0.504,4.975 -3.983,7.537 -7.55,7.67l0,0.006Zm3.694,-0.258c0.501,-0.547 1.27,-0.882 1.809,-1.411c1.401,-1.379 2.257,-3.534 2.58,-5.462c1.399,0.468 1.045,1.885 0.547,2.97c0.221,0.185 1.204,-0.9 1.36,-1.125c0.878,-1.271 1.432,-3.573 0.011,-4.631c-0.414,0.262 0,0.745 -0.317,1.065c-0.604,0.612 -1.596,-0.067 -1.548,-0.949c0.121,-2.225 3.589,-1.922 3.95,0.732c0.641,4.711 -4.274,8.275 -8.393,8.808l0,0.002Zm9.508,-10.775c0.477,0.923 0.712,2.115 -0.548,2.415c-0.037,-1.4 -0.762,-3.216 -2.376,-3.159c0.122,-0.346 0.666,-0.311 1.007,-0.554c0.86,-0.618 1.428,-1.911 1.371,-2.974c1.222,0.442 1.13,1.724 0.364,2.6c0.236,0.191 1.047,-0.805 1.923,0c1.276,1.172 -0.466,2.375 -1.739,1.677l-0.002,-0.004Z" style="fill:#aa5e1b;fill-rule:nonzero;"/></g></g></svg>
